src/modules/75-ce/components/COHelpSidebar/images/idleTime.svg

<svg fill="none" height="75" viewBox="0 0 126 75" width="126" xmlns="http://www.w3.org/2000/svg" xmlns:xlink="http://www.w3.org/1999/xlink"><clipPath id="a"><path d="m0 0h126v75h-126z"/></clipPath><g clip-path="url(#a)"><path d="m10.431 16.2716c3.5862 0 6.4933-2.8561 6.4933-6.3794 0-3.52325-2.9071-6.37941-6.4933-6.37941-3.58611 0-6.49326 2.85616-6.49326 6.37941 0 3.5233 2.90715 6.3794 6.49326 6.3794z" fill="#ff6584"/><path d="m62.6748 75c34.6144 0 62.6752-1.1176 62.6752-2.4963 0-1.3786-28.0608-2.4963-62.6752-2.4963-34.6143 0-62.6748 1.1177-62.6748 2.4963 0 1.3787 28.0605 2.4963 62.6748 2.4963z" fill="#e6e6e6"/><path d="m15.9509 41.2192c8.8094 0 15.9509-7.0162 15.9509-15.6711 0-8.655-7.1415-15.67119-15.9509-15.67119-8.80944 0-15.9509 7.01619-15.9509 15.67119 0 8.6549 7.14146 15.6711 15.9509 15.6711z" fill="#0278d5"/><path d="m17.4883 72.7504h-3.2671l1.4894-49.5625z" fill="#3f3d56"/><path d="m15.9993 32.5812 3.5073-4.7674-3.5553 5.9475-.3844-.6609z" fill="#3f3d56"/><path d="m15.6146 37.3959-3.5072-4.7674 3.5554 5.9474.3844-.6608z" fill="#3f3d56"/><path d="m116.809 72.8026h-3.267l1.49-49.5625z" fill="#3f3d56"/><path d="m115.32 32.6333 3.507-4.7673-3.555 5.9474-.385-.6608z" fill="#3f3d56"/><path d="m114.936 37.448-3.508-4.7674 3.556 5.9475.384-.6609z" fill="#3f3d56"/><path d="m64.7998 72.7942c16.4108 0 29.7144-13.0702 29.7144-29.1932s-13.3036-29.1933-29.7144-29.1933-29.7144 13.0703-29.7144 29.1933 13.3036 29.1932 29.7144 29.1932z" fill="#3f3d56"/><path d="m64.7997 70.3776c15.0523 0 27.2546-11.9883 27.2546-26.7766s-12.2023-26.7766-27.2546-26.7766-27.2545 11.9883-27.2545 26.7766 12.2022 26.7766 27.2545 26.7766z" fill="#fff"/><path d="m64.7013 47.2743c2.0106 0 3.6405-1.6013 3.6405-3.5767 0-1.9753-1.6299-3.5766-3.6405-3.5766s-3.6405 1.6013-3.6405 3.5766c0 1.9754 1.6299 3.5767 3.6405 3.5767z" fill="#3f3d56"/><path d="m65.4878 18.1777h-1.5742v2.9h1.5742z" fill="#3f3d56"/><path d="m65.4878 66.3176h-1.5742v2.9h1.5742z" fill="#3f3d56"/><path d="m41.6777 44.471v-1.5467h-2.9517v1.5467z" fill="#3f3d56"/><path d="m90.6772 44.471v-1.5467h-2.9517v1.5467z" fill="#3f3d56"/><path d="m63.6516 45.2503 1.3454-3.0223 16.8578 9.1727z" fill="#3f3d56"/><path d="m68.6367 7.35107h-7.6745v8.69993h7.6745z" fill="#3f3d56"/><path d="m64.7991 9.76772c4.8907 0 8.8553-1.08197 8.8553-2.41666 0-1.33468-3.9646-2.41666-8.8553-2.41666-4.8906 0-8.8553 1.08198-8.8553 2.41666 0 1.33469 3.9647 2.41666 8.8553 2.41666z" fill="#3f3d56"/><g fill="#e6e6e6"><path d="m125.365 5.84566c-.084-1.46604-.696-2.85498-1.726-3.91918-1.029-1.064211-2.41-1.734513-3.896-1.891399s-2.981.209843-4.217 1.034799c-1.237.82496-2.135 2.05452-2.534 3.46947-.077-.0027-.153-.00571-.23-.00571-1.363.00024-2.688.4339-3.779 1.23609-1.091.80218-1.888 1.92978-2.272 3.21409-.903-.38974-1.912-.4743-2.869-.24043s-1.808.77296-2.42 1.53281h19.673c.573.0016 1.142-.1106 1.67-.32984.529-.21927 1.007-.54111 1.407-.94624.399-.40513.711-.88523.916-1.41155.206-.52633.302-1.08804.282-1.65153-.002-.03042-.003-.06087-.005-.09138z"/><path d="m108.92 18.8856c.935 0 1.694-.7451 1.694-1.6642s-.759-1.6642-1.694-1.6642c-.936 0-1.694.7451-1.694 1.6642s.758 1.6642 1.694 1.6642z"/><path d="m114.034 14.6834c.779 0 1.411-.6204 1.411-1.3857s-.632-1.3857-1.411-1.3857-1.41.6204-1.41 1.3857.631 1.3857 1.41 1.3857z"/><path d="m120.918 22.4913c.936 0 1.694-.7451 1.694-1.6642s-.758-1.6642-1.694-1.6642c-.935 0-1.693.7451-1.693 1.6642s.758 1.6642 1.693 1.6642z"/><path d="m108.073 30.1189c.935 0 1.694-.7451 1.694-1.6642s-.759-1.6642-1.694-1.6642c-.936 0-1.694.7451-1.694 1.6642s.758 1.6642 1.694 1.6642z"/><path d="m120.918 39.688c.936 0 1.694-.7451 1.694-1.6642s-.758-1.6642-1.694-1.6642c-.935 0-1.693.7451-1.693 1.6642s.758 1.6642 1.693 1.6642z"/><path d="m118.234 70.1134c0-.018.002-.0357.002-.0538.001-.2789-.07-.5534-.206-.7982s-.332-.4521-.571-.6027-.513-.2398-.796-.2593-.567.0314-.824.1479c-.243-.2745-.569-.4633-.931-.5377s-.739-.0302-1.072.1258c-.334.1561-.606.4153-.776.738-.169.3228-.226.6911-.162 1.0487-.009-.0001-.017-.0012-.026-.0012-.269-.0004-.535.0624-.775.1833-.24.1208-.447.2963-.604.5116-.157.2154-.26.4645-.299.7266s-.014.5296.073.7803c.087.2508.234.4774.428.6612.194.1837.43.3193.688.3953.259.0761.532.0904.797.0419s.515-.1585.728-.3209c.134.2574.335.4758.581.6338.247.158.531.2501.825.2671s.587-.0415.851-.1699.489-.3222.654-.5622c.201.1441.433.2426.677.2886.245.046.497.0383.739-.0225.241-.0609.466-.1734.658-.3294.192-.1561.347-.352.453-.5736s.161-.4634.161-.7083-.055-.4867-.162-.7083c-.106-.2215-.261-.4172-.453-.5732-.192-.1559-.417-.2682-.658-.3289z"/><path d="m122.47 32.0604c.39 0 .706-.3104.706-.6934 0-.3829-.316-.6934-.706-.6934-.389 0-.705.3105-.705.6934 0 .383.316.6934.705.6934z"/><path d="m117.954 15.4185c.389 0 .705-.3105.705-.6934 0-.383-.316-.6935-.705-.6935-.39 0-.706.3105-.706.6935 0 .3829.316.6934.706.6934z"/><path d="m115.554 32.6152c.39 0 .706-.3105.706-.6935 0-.3829-.316-.6934-.706-.6934s-.706.3105-.706.6934c0 .383.316.6935.706.6935z"/><path d="m116.119 31.9218c.39 0 .706-.3105.706-.6935 0-.3829-.316-.6934-.706-.6934s-.706.3105-.706.6934c0 .383.316.6935.706.6935z"/><path d="m116.543 31.2283c.39 0 .706-.3104.706-.6934 0-.3829-.316-.6934-.706-.6934s-.706.3105-.706.6934c0 .383.316.6934.706.6934z"/><path d="m114.848 37.053c.39 0 .706-.3104.706-.6934 0-.3829-.316-.6934-.706-.6934s-.706.3105-.706.6934c0 .383.316.6934.706.6934z"/><path d="m125.294 44.8193c.39 0 .706-.3105.706-.6934 0-.383-.316-.6935-.706-.6935s-.706.3105-.706.6935c0 .3829.316.6934.706.6934z"/><path d="m110.19 45.2353c.39 0 .706-.3104.706-.6934s-.316-.6934-.706-.6934c-.389 0-.705.3104-.705.6934s.316.6934.705.6934z"/><path d="m111.037 23.8781c.39 0 .706-.3104.706-.6934 0-.3829-.316-.6934-.706-.6934-.389 0-.705.3105-.705.6934 0 .383.316.6934.705.6934z"/><path d="m114.283 36.3596c.39 0 .706-.3104.706-.6934s-.316-.6934-.706-.6934-.706.3104-.706.6934.316.6934.706.6934z"/><path d="m113.578 35.2501c.39 0 .706-.3104.706-.6934 0-.3829-.316-.6934-.706-.6934s-.706.3105-.706.6934c0 .383.316.6934.706.6934z"/></g></g></svg>

<svg width="126" height="75" viewBox="0 0 126 75" fill="none" xmlns="http://www.w3.org/2000/svg">
<g clip-path="url(#clip0)">
<path d="M10.431 16.2716C14.0172 16.2716 16.9243 13.4155 16.9243 9.8922C16.9243 6.36895 14.0172 3.51279 10.431 3.51279C6.84489 3.51279 3.93774 6.36895 3.93774 9.8922C3.93774 13.4155 6.84489 16.2716 10.431 16.2716Z" fill="#FF6584"/>
<path d="M62.6748 75C97.2892 75 125.35 73.8824 125.35 72.5037C125.35 71.1251 97.2892 70.0074 62.6748 70.0074C28.0605 70.0074 0 71.1251 0 72.5037C0 73.8824 28.0605 75 62.6748 75Z" fill="#E6E6E6"/>
<path d="M15.9509 41.2192C24.7603 41.2192 31.9018 34.203 31.9018 25.5481C31.9018 16.8931 24.7603 9.87691 15.9509 9.87691C7.14146 9.87691 0 16.8931 0 25.5481C0 34.203 7.14146 41.2192 15.9509 41.2192Z" fill="#0278D5"/>
<path d="M17.4883 72.7504H14.2212L15.7106 23.1879L17.4883 72.7504Z" fill="#3F3D56"/>
<path d="M15.9993 32.5812L19.5066 27.8138L15.9513 33.7613L15.5669 33.1004L15.9993 32.5812Z" fill="#3F3D56"/>
<path d="M15.6146 37.3959L12.1074 32.6285L15.6628 38.5759L16.0472 37.9151L15.6146 37.3959Z" fill="#3F3D56"/>
<path d="M116.809 72.8026H113.542L115.032 23.2401L116.809 72.8026Z" fill="#3F3D56"/>
<path d="M115.32 32.6333L118.827 27.866L115.272 33.8134L114.887 33.1526L115.32 32.6333Z" fill="#3F3D56"/>
<path d="M114.936 37.448L111.428 32.6806L114.984 38.6281L115.368 37.9672L114.936 37.448Z" fill="#3F3D56"/>
<path d="M64.7998 72.7942C81.2106 72.7942 94.5142 59.724 94.5142 43.601C94.5142 27.478 81.2106 14.4077 64.7998 14.4077C48.389 14.4077 35.0854 27.478 35.0854 43.601C35.0854 59.724 48.389 72.7942 64.7998 72.7942Z" fill="#3F3D56"/>
<path d="M64.7997 70.3776C79.852 70.3776 92.0543 58.3893 92.0543 43.601C92.0543 28.8127 79.852 16.8244 64.7997 16.8244C49.7474 16.8244 37.5452 28.8127 37.5452 43.601C37.5452 58.3893 49.7474 70.3776 64.7997 70.3776Z" fill="white"/>
<path d="M64.7013 47.2743C66.7119 47.2743 68.3418 45.673 68.3418 43.6976C68.3418 41.7223 66.7119 40.121 64.7013 40.121C62.6907 40.121 61.0608 41.7223 61.0608 43.6976C61.0608 45.673 62.6907 47.2743 64.7013 47.2743Z" fill="#3F3D56"/>
<path d="M65.4878 18.1777H63.9136V21.0777H65.4878V18.1777Z" fill="#3F3D56"/>
<path d="M65.4878 66.3176H63.9136V69.2176H65.4878V66.3176Z" fill="#3F3D56"/>
<path d="M41.6777 44.471V42.9243H38.726V44.471H41.6777Z" fill="#3F3D56"/>
<path d="M90.6772 44.471V42.9243H87.7255V44.471H90.6772Z" fill="#3F3D56"/>
<path d="M63.6516 45.2503L64.997 42.228L81.8548 51.4007L63.6516 45.2503Z" fill="#3F3D56"/>
<path d="M68.6367 7.35107H60.9622V16.051H68.6367V7.35107Z" fill="#3F3D56"/>
<path d="M64.7991 9.76772C69.6898 9.76772 73.6544 8.68575 73.6544 7.35106C73.6544 6.01638 69.6898 4.9344 64.7991 4.9344C59.9085 4.9344 55.9438 6.01638 55.9438 7.35106C55.9438 8.68575 59.9085 9.76772 64.7991 9.76772Z" fill="#3F3D56"/>
<path d="M125.365 5.84566C125.281 4.37962 124.669 2.99068 123.639 1.92648C122.61 0.862269 121.229 0.191967 119.743 0.035081C118.257 -0.121805 116.762 0.244924 115.526 1.06988C114.289 1.89484 113.391 3.1244 112.992 4.53935C112.915 4.53665 112.839 4.53364 112.762 4.53364C111.399 4.53388 110.074 4.96754 108.983 5.76973C107.892 6.57191 107.095 7.69951 106.711 8.98382C105.808 8.59408 104.799 8.50952 103.842 8.74339C102.885 8.97726 102.034 9.51635 101.422 10.2762H121.095C121.668 10.2778 122.237 10.1656 122.765 9.94636C123.294 9.72709 123.772 9.40525 124.172 9.00012C124.571 8.59499 124.883 8.11489 125.088 7.58857C125.294 7.06224 125.39 6.50053 125.37 5.93704C125.368 5.90662 125.367 5.87617 125.365 5.84566Z" fill="#E6E6E6"/>
<path d="M108.92 18.8856C109.855 18.8856 110.614 18.1405 110.614 17.2214C110.614 16.3023 109.855 15.5572 108.92 15.5572C107.984 15.5572 107.226 16.3023 107.226 17.2214C107.226 18.1405 107.984 18.8856 108.92 18.8856Z" fill="#E6E6E6"/>
<path d="M114.034 14.6834C114.813 14.6834 115.445 14.063 115.445 13.2977C115.445 12.5324 114.813 11.912 114.034 11.912C113.255 11.912 112.624 12.5324 112.624 13.2977C112.624 14.063 113.255 14.6834 114.034 14.6834Z" fill="#E6E6E6"/>
<path d="M120.918 22.4913C121.854 22.4913 122.612 21.7462 122.612 20.8271C122.612 19.908 121.854 19.1629 120.918 19.1629C119.983 19.1629 119.225 19.908 119.225 20.8271C119.225 21.7462 119.983 22.4913 120.918 22.4913Z" fill="#E6E6E6"/>
<path d="M108.073 30.1189C109.008 30.1189 109.767 29.3738 109.767 28.4547C109.767 27.5356 109.008 26.7905 108.073 26.7905C107.137 26.7905 106.379 27.5356 106.379 28.4547C106.379 29.3738 107.137 30.1189 108.073 30.1189Z" fill="#E6E6E6"/>
<path d="M120.918 39.688C121.854 39.688 122.612 38.9429 122.612 38.0238C122.612 37.1047 121.854 36.3596 120.918 36.3596C119.983 36.3596 119.225 37.1047 119.225 38.0238C119.225 38.9429 119.983 39.688 120.918 39.688Z" fill="#E6E6E6"/>
<path d="M118.234 70.1134C118.234 70.0954 118.236 70.0777 118.236 70.0596C118.237 69.7807 118.166 69.5062 118.03 69.2614C117.894 69.0166 117.698 68.8093 117.459 68.6587C117.22 68.5081 116.946 68.4189 116.663 68.3994C116.38 68.3799 116.096 68.4308 115.839 68.5473C115.596 68.2728 115.27 68.084 114.908 68.0096C114.546 67.9352 114.169 67.9794 113.836 68.1354C113.502 68.2915 113.23 68.5507 113.06 68.8734C112.891 69.1962 112.834 69.5645 112.898 69.9221C112.889 69.922 112.881 69.9209 112.872 69.9209C112.603 69.9205 112.337 69.9833 112.097 70.1042C111.857 70.225 111.65 70.4005 111.493 70.6158C111.336 70.8312 111.233 71.0803 111.194 71.3424C111.155 71.6045 111.18 71.872 111.267 72.1227C111.354 72.3735 111.501 72.6001 111.695 72.7839C111.889 72.9676 112.125 73.1032 112.383 73.1792C112.642 73.2553 112.915 73.2696 113.18 73.2211C113.445 73.1726 113.695 73.0626 113.908 72.9002C114.042 73.1576 114.243 73.376 114.489 73.534C114.736 73.692 115.02 73.7841 115.314 73.8011C115.608 73.8181 115.901 73.7596 116.165 73.6312C116.429 73.5028 116.654 73.309 116.819 73.069C117.02 73.2131 117.252 73.3116 117.496 73.3576C117.741 73.4036 117.993 73.3959 118.235 73.3351C118.476 73.2742 118.701 73.1617 118.893 73.0057C119.085 72.8496 119.24 72.6537 119.346 72.4321C119.452 72.2105 119.507 71.9687 119.507 71.7238C119.507 71.4789 119.452 71.2371 119.345 71.0155C119.239 70.794 119.084 70.5983 118.892 70.4423C118.7 70.2864 118.475 70.1741 118.234 70.1134Z" fill="#E6E6E6"/>
<path d="M122.47 32.0604C122.86 32.0604 123.176 31.75 123.176 31.367C123.176 30.9841 122.86 30.6736 122.47 30.6736C122.081 30.6736 121.765 30.9841 121.765 31.367C121.765 31.75 122.081 32.0604 122.47 32.0604Z" fill="#E6E6E6"/>
<path d="M117.954 15.4185C118.343 15.4185 118.659 15.108 118.659 14.7251C118.659 14.3421 118.343 14.0316 117.954 14.0316C117.564 14.0316 117.248 14.3421 117.248 14.7251C117.248 15.108 117.564 15.4185 117.954 15.4185Z" fill="#E6E6E6"/>
<path d="M115.554 32.6152C115.944 32.6152 116.26 32.3047 116.26 31.9217C116.26 31.5388 115.944 31.2283 115.554 31.2283C115.164 31.2283 114.848 31.5388 114.848 31.9217C114.848 32.3047 115.164 32.6152 115.554 32.6152Z" fill="#E6E6E6"/>
<path d="M116.119 31.9218C116.509 31.9218 116.825 31.6113 116.825 31.2283C116.825 30.8454 116.509 30.5349 116.119 30.5349C115.729 30.5349 115.413 30.8454 115.413 31.2283C115.413 31.6113 115.729 31.9218 116.119 31.9218Z" fill="#E6E6E6"/>
<path d="M116.543 31.2283C116.933 31.2283 117.249 30.9179 117.249 30.5349C117.249 30.152 116.933 29.8415 116.543 29.8415C116.153 29.8415 115.837 30.152 115.837 30.5349C115.837 30.9179 116.153 31.2283 116.543 31.2283Z" fill="#E6E6E6"/>
<path d="M114.848 37.053C115.238 37.053 115.554 36.7426 115.554 36.3596C115.554 35.9767 115.238 35.6662 114.848 35.6662C114.458 35.6662 114.142 35.9767 114.142 36.3596C114.142 36.7426 114.458 37.053 114.848 37.053Z" fill="#E6E6E6"/>
<path d="M125.294 44.8193C125.684 44.8193 126 44.5088 126 44.1259C126 43.7429 125.684 43.4324 125.294 43.4324C124.904 43.4324 124.588 43.7429 124.588 44.1259C124.588 44.5088 124.904 44.8193 125.294 44.8193Z" fill="#E6E6E6"/>
<path d="M110.19 45.2353C110.58 45.2353 110.896 44.9249 110.896 44.5419C110.896 44.1589 110.58 43.8485 110.19 43.8485C109.801 43.8485 109.485 44.1589 109.485 44.5419C109.485 44.9249 109.801 45.2353 110.19 45.2353Z" fill="#E6E6E6"/>
<path d="M111.037 23.8781C111.427 23.8781 111.743 23.5677 111.743 23.1847C111.743 22.8018 111.427 22.4913 111.037 22.4913C110.648 22.4913 110.332 22.8018 110.332 23.1847C110.332 23.5677 110.648 23.8781 111.037 23.8781Z" fill="#E6E6E6"/>
<path d="M114.283 36.3596C114.673 36.3596 114.989 36.0492 114.989 35.6662C114.989 35.2832 114.673 34.9728 114.283 34.9728C113.893 34.9728 113.577 35.2832 113.577 35.6662C113.577 36.0492 113.893 36.3596 114.283 36.3596Z" fill="#E6E6E6"/>
<path d="M113.578 35.2501C113.968 35.2501 114.284 34.9397 114.284 34.5567C114.284 34.1738 113.968 33.8633 113.578 33.8633C113.188 33.8633 112.872 34.1738 112.872 34.5567C112.872 34.9397 113.188 35.2501 113.578 35.2501Z" fill="#E6E6E6"/>
</g>
<defs>
<clipPath id="clip0">
<rect width="126" height="75" fill="white"/>
</clipPath>
</defs>
</svg>
